packages/ffe-icons/icons/open/400/sm/playlist_play.svg

<svg xmlns="http://www.w3.org/2000/svg" height="20" viewBox="0 -960 960 960" width="20"><path d="M180.283-396Q165-396 154.5-406.289q-10.5-10.29-10.5-25.5Q144-447 154.338-457.5 164.677-468 179.96-468h215.757Q411-468 421.5-457.711q10.5 10.29 10.5 25.5Q432-417 421.662-406.5 411.323-396 396.04-396H180.283Zm.006-150Q165-546 154.5-556.289q-10.5-10.29-10.5-25.5Q144-597 154.342-607.5q10.343-10.5 25.632-10.5h359.737Q555-618 565.5-607.711q10.5 10.29 10.5 25.5Q576-567 565.658-556.5 555.315-546 540.026-546H180.289Zm0-150Q165-696 154.5-706.289q-10.5-10.29-10.5-25.5Q144-747 154.342-757.5q10.343-10.5 25.632-10.5h359.737Q555-768 565.5-757.711q10.5 10.29 10.5 25.5Q576-717 565.658-706.5 555.315-696 540.026-696H180.289Zm472.088 485.976Q647.251-207 642.126-207q-5.126 0-9.188-2-4.063-2-6.5-6.5Q624-220 624-225v-246q0-5 2.438-9.5 2.437-4.5 6.5-6.5 4.062-2 9.188-2 5.125 0 10.251 3.024L841-363q4 3 6 6.5t2 8.5q0 5-2 8.5t-6 6.5L652.377-210.024Z"/></svg>

<svg xmlns="http://www.w3.org/2000/svg" height="20" viewBox="0 -960 960 960" width="20"><path d="M180.28-396q-15.28 0-25.78-10.29-10.5-10.29-10.5-25.5t10.34-25.71q10.34-10.5 25.62-10.5h215.76q15.28 0 25.78 10.29 10.5 10.29 10.5 25.5t-10.34 25.71Q411.32-396 396.04-396H180.28Zm.01-150q-15.29 0-25.79-10.29t-10.5-25.5q0-15.21 10.34-25.71t25.63-10.5h359.74q15.29 0 25.79 10.29t10.5 25.5q0 15.21-10.34 25.71T540.03-546H180.29Zm0-150q-15.29 0-25.79-10.29t-10.5-25.5q0-15.21 10.34-25.71t25.63-10.5h359.74q15.29 0 25.79 10.29t10.5 25.5q0 15.21-10.34 25.71T540.03-696H180.29Zm472.09 485.98q-5.13 3.02-10.25 3.02-5.13 0-9.19-2t-6.5-6.5Q624-220 624-225v-246q0-5 2.44-9.5t6.5-6.5q4.06-2 9.19-2 5.12 0 10.25 3.02L841-363q4 3 6 6.5t2 8.5q0 5-2 8.5t-6 6.5L652.38-210.02Z"/></svg>
